X: 13902
T: Fox's Sleep, The
R: barndance
M: 4/4
K: Dmajor
B2|d2 d>c cBAF|A2 Bc d2 dc|cBAF GFED|D4 z2 B2|
d2 d>c cBAF|A2 Bc d2 dc|A2 F>D GFEE|D4 z2 A2|
d2 c>d c<B cd|e>d e>f A3A|d>c de f>e dc|d2 d2 z2 A2|
d3c cB A2|AF AB/c/ d2 d>c|BAFD GFEA|D4 D2||

